X:140
T:German Fancy. THO5.140, The
M:2/4
L:1/8
B:Thompson's Complete Collection of 200 Favourite Dances Vol.5
F:https://www.libraryofdance.org/manuals/1780c-Thompson-Compleat-5.pdf
Z:vmp. Peter Dunk 2024
U:w=!wedge!
Q:1/4=120
K:A
wAwAwAwA|[cE][BE][BE][BE]|(Bd)wGwB|(3(AAA) A2|
wAwAwAwA|[cE][BE][BE][BE]|(Bd)wGwB|A2 A,2:|
|:(3(eAA) (3(AAA)|(3(fAA) (3(AAA)|eaed|c2B2|
(3(eAA) (3(AAA)|Af f2|edcB|A2 A,2:|
W:
W:The 1st Gent turns the 2nd Lady ./.
W:The 1st Lady turns the 2nd Gent ./:
W:Cross over 1 Couple :/.
W:Right and Left :/:

